svgs/minecraft.svg

<svg width="24" height="24" viewBox="0 0 24 24" fill="none" xmlns="http://www.w3.org/2000/svg">
<path fill-rule="evenodd" clip-rule="evenodd" d="M4 2C2.89543 2 2 2.89543 2 4V20C2 21.1046 2.89543 22 4 22H20C21.1046 22 22 21.1046 22 20V4C22 2.89543 21.1046 2 20 2H4ZM6 6H10V10H6V6ZM14 10V12H16V18H14V16H10V18H8V12H10V10H14ZM14 10V6H18V10H14Z" fill="#FFF1C0"/>
</svg>

<svg xmlns="http://www.w3.org/2000/svg" width="24" height="24" fill="none" viewBox="0 0 24 24"><path fill="#FFF1C0" fill-rule="evenodd" d="M4 2a2 2 0 0 0-2 2v16a2 2 0 0 0 2 2h16a2 2 0 0 0 2-2V4a2 2 0 0 0-2-2zm2 4h4v4H6zm8 4v2h2v6h-2v-2h-4v2H8v-6h2v-2zm0 0V6h4v4z" clip-rule="evenodd"/></svg>
